X:1
T:Gavotte
T:Gavotte
T:Francesco Molino
T:by IMSLP - Pubblico dominio
T:by IMSLP - Pubblico dominio
C:Francesco Molino
Z:by IMSLP - Pubblico dominio
%%score ( 1 2 3 )
L:1/8
Q:1/4=120
M:2/2
K:G
V:1 treble-8 nm="Classical Guitar" snm="Guit."
V:2 treble-8 
V:3 treble-8 
V:1
"_dolce""^Allegretto ma non troppo." g2 |!>(! (f2 g2)!>)! B2 d2 | d3 e d2!f! e2 | %3
!p! c2!f! d2!p! B2!ff! (cB) | A>dA>e d2"_dolce" g2 |!>(! ((f2 g2))!>)! B2 c2 | d3 e d2 g2 | %7
!p! e2!f! a2 [Bg]2 [cf]2 |{/f} [Bg]6 ||"_dolce" d2 |!>(! (^c2 d2)!>)! A2 =c2 | %11
!<(! B2 c2 ^c2 d2!<)! |"_cresc." ^dede!f! c2 A2 | BGe>d A2 d2 |!>(! ((^c2 d2))!>)! A2 =c2 | %15
 B2 d2 g2 B2 | A2!f! (B^c) defg | a2 f2 g2 e2 | dA(B^c) defg | a2 f2 g2 e2 | Dddd (^cd)(cd) | %21
 D^cee e2 e2 | D=cff (^eg)(ef) | !arpeggio![df]6 g2 |!>(! ((f2 g2))!>)! B2 c2 | d3 e d2 e2 | %26
!p! c2!f! d2!p! B2!ff! (cB) | A>dA>e d2"_dolce" g2 |!>(! ((f2 g2))!>)! B2 c2 | d3 e d2!f! g2 | %30
!p! e2!ff! a2 [Bg]2 [cf]2 |{/f} [Bg]6 |]"_dolce" e2 | (^d2 e2) f2 g2 | B3 c B2 f2 | %35
"_glissando" (^d2 e2) f2 g2 | !arpeggio!^d3 e d2!f! B2 | d2 B2 f2 d2 | !arpeggio!g3 f e2 d2 | %39
 c2 Cc B,B ^A,^A | B,B^AB B,2"_dolce" e2 |!>(! (^d2!>)! e2) f2 g2 | !arpeggio!B3 c B2 f2 | %43
"_glissando" (^d2 e2) f2 g2 | !arpeggio!^d3 e d2!f! B2 | d2 B2 f2 d2 | !arpeggio!g3 f e2 d2 | %47
 c2 A,f B,e B,G | E,GBe E2 ||"_dolce" g2 |!>(! (f2 g2)!>)! B2 d2 | d3 e d2!f! e2 | %52
!p! c2!f! d2!p! B2!ff! (cB) | A>dA>e d2"_dolce" g2 |!>(! ((f2 g2))!>)! B2 c2 | d3 e d2!f! g2 | %56
!p! e2!f! a2 [Bg]2 [cf]2 | GBgB gBGg | F[Bg]G[Bg] ^D[Ag]E[Bg] | B,BgB gBG[Bg] | %60
!>(! F[Bg]G!>)![Bg] ^D[Bg]E[Bg] | B,!f!cec ecA[ce] |!>(! ^G[ce]A!>)![ce] E[ce]C[ce] | DBdB DBdg | %64
 Dcda DAcf | GBgB gBG[Bg] |!>(! F[Bg]G!>)![Bg] ^D[Bg]E[Bg] | B,BgB gBG[Bg] | %68
 F[Bg]G[Bg] ^D[Bg]E[Bg] | Ccec ecA[ce] | ^G[ce]A[ce] E[ce]C[ce] | DBdB DBdg | %72
 [GBb]2 [Bb]!>!D [Bc']!>!D [Ba^c']!>!D | [Bd']4 [Acf]4 |!ff! GBgD A[cf]D[cf] | GBgD A[cf]D[cf] | %76
 GBgD A[cf]D[cf] | G[Bf]G[Bg] D[Bg]B,[Bg] | z2 [Bg]2 [GBg]2 [GBg]2 | [GBg]4"_Harm." [dgb]2 z2 | %80
 [G,B,DG]8 |] %81
V:2
 z2 | z4 G2 A2 | B6 ^G2 | A2 D2 G2 z2 | D2 A,2 D2 z2 | z4 G2 A2 | A4 z2 B,2 | C2 A,2 D2 D2 | %8
 !^!G2 D2 G,2 || x2 | z4 F2 D2 | G4 z4 | z4 A,2 C2 | D4 D2 z2 | z4 F2 D2 | G6 z2 | x8 | %17
 aA,dA, eA,^cA, | D2 z2 z4 | aA,dA, eA,^cA, | D2 z2 z4 | D2 z2 ^B^cBc | D2 z2 c2 c2 | %23
 !arpeggio!D6 z2 | z4 G2 A2 | B6 ^G2 | A2 D2 G2 z2 | D2 A,2 D2 z2 | z4 G2 A2 | B6 B,2 | %30
 C2 A,2 D2 D2 | G2 D2 G,2 |] z2 | z8 | [EG]6 z2 | z8 | [FA]6 z2 | G2 z2 ^D2 z2 | [EGB]6 z2 | %39
 z2 C2 B,2 ^A,2 | B,2 x6 | z8 | [EG]6 z2 | z8 | [FA]6 z2 | G2 z2 ^D2 z2 | [EGB]6 z2 | %47
 z2 A,2 B,2 B,2 | x6 || z2 | z4 G2 A2 | B6 ^G2 | A2 D2 G2 z2 | D2 A,2 D2 z2 | z4 G2 A2 | %55
 A4 z2 B,2 | C2 A,2 D2 D2 | x8 | x4 ^D2 E2 | B,2 x4 G2 | F2 G2 ^D2 x2 | B,2 x4 A2 | ^G2 A2 E2 C2 | %63
 D2 x2 D2 x2 | D2 x2 D2 x2 | G2 x6 | F2 G2 ^D2 E2 | B,2 x4 G2 | F2 G2 ^D2 x2 | C2 x4 A2 | %70
 ^G2 A2 E2 C2 | D2 x2 D2 x2 | D2 x D2 D2 D | z4 D4 | G3 D A2 D2 | G3 D A2 D2 | G3 D A2 D2 | %77
 x4 D2 B,2 | G,2 G2 D2 B,2 | G,4 z4 | x8 |] %81
V:3
 x2 | x8 | x8 | x8 | x8 | x8 | x8 | x8 | x6 || x2 | x8 | x8 | x8 | x8 | x8 | x8 | x8 | x8 | f2 x6 | %19
 x8 | x8 | x8 | x8 | x8 | x8 | x8 | x8 | x8 | x8 | x8 | x8 | x6 |] x2 | x8 | x8 | x8 | x8 | x8 | %38
 x8 | x8 | x8 | x8 | x8 | x8 | x8 | x8 | x8 | x8 | x6 || x2 | x8 | x8 | x8 | x8 | x8 | x8 | x8 | %57
 x8 | x8 | x8 | x8 | x8 | x8 | x8 | x8 | x8 | x8 | x8 | x8 | x8 | x8 | x8 | x8 | x8 | x8 | x8 | %76
 x8 | x8 | x8 | x8 | x8 |] %81

